assets/build/img/name.svg

<svg width="18" height="22" viewBox="0 0 18 22" fill="none" xmlns="http://www.w3.org/2000/svg">
<path d="M13.2218 14.1742L15.5128 14.897C16.92 15.337 17.8364 16.5942 17.8364 18.0085V19.1399C17.8364 19.8942 17.2473 20.5227 16.5273 20.617C14.0073 21.2142 11.4873 21.5285 8.9673 21.5285C6.4473 21.5285 3.92729 21.2142 1.47275 20.6485C0.687294 20.5542 0.0982027 19.9256 0.0982027 19.1713V18.0399C0.0982027 16.6256 1.04729 15.3685 2.42184 14.9285L4.71275 14.2056C5.62911 13.9228 6.25093 13.137 6.31639 12.257L5.72729 11.597C5.53093 11.4085 5.36729 11.1885 5.23639 10.937L4.48366 9.49132C3.76366 9.33418 3.24002 8.73704 3.24002 8.01418V7.03989C3.24002 6.37989 3.6982 5.81418 4.28729 5.59418V4.02275C4.28729 2.07418 5.92366 0.53418 7.92002 0.53418H9.98184C12.0109 0.53418 13.6146 2.10561 13.6146 4.02275V5.59418C14.2364 5.81418 14.6618 6.34847 14.6618 7.03989V8.01418C14.6618 8.73704 14.1382 9.36561 13.4182 9.49132L12.6655 10.937C12.5346 11.1885 12.3709 11.4085 12.1746 11.597L11.5527 12.1942C11.6837 13.1056 12.3055 13.8913 13.2218 14.1742Z" fill="#00642F"/>
</svg>

<svg width="18" height="22" viewBox="0 0 18 22" fill="none" xmlns="http://www.w3.org/2000/svg"><path d="M13.222 14.174l2.29.723c1.408.44 2.324 1.697 2.324 3.112v1.13c0 .755-.589 1.384-1.309 1.478-2.52.597-5.04.912-7.56.912-2.52 0-5.04-.315-7.494-.88-.786-.095-1.375-.723-1.375-1.478V18.04c0-1.414.95-2.671 2.324-3.111l2.29-.723c.917-.283 1.539-1.069 1.604-1.949l-.589-.66a2.52 2.52 0 01-.49-.66l-.753-1.446c-.72-.157-1.244-.754-1.244-1.477V7.04c0-.66.458-1.226 1.047-1.446V4.023C4.287 2.074 5.924.534 7.92.534h2.062c2.029 0 3.633 1.572 3.633 3.489v1.571c.621.22 1.047.754 1.047 1.446v.974c0 .723-.524 1.352-1.244 1.477l-.752 1.446a2.52 2.52 0 01-.491.66l-.622.597a2.412 2.412 0 001.669 1.98z" fill="#00642F"/></svg>
